X: 6430
T: Castlebar Races, The
R: jig
M: 6/8
K: Gmajor
|:f|gdB BAB|GBA GBd|gdB BAB|GBd e2f|
gdB BAB|GBA GBd|gfe fdB|ABd e2:|
|:f|gfg bge|fef afd|gfg bge|fed e2f|
gfg bge|fef afd|gfe fdB|ABd e2:|

